X: 2137
T: Attingham
R: waltz
M: 3/4
K: Dmajor
F4 G2|A4 d2|c4 d2|B4 c2|A6|G4 F2|E4 D2|FD- D4|E2>F2 G2|E6|
F4 G2|A4 d2|c4 d2|B4 c2|A6|G4 F2|E4 D2|B,D- D4|D6:|
A2>B2 c2|d2>c2 d2|e4 d2|f2>e2 d2|G6|FA-A2 d2|B4 A2|G4 F2|E2>F2 G2|E6|
F2>E2 F2|G2>F2 G2|A2 B2 c2|B4 c2|d6|G4 F2|E4 D2|B,D- D4|D6:|

